public/assets/icons/phone.svg

<?xml version="1.0" ?><svg height="48" viewBox="0 0 48 48" width="48" xmlns="http://www.w3.org/2000/svg"><path d="M0 0h48v48h-48z" fill="none"/><path d="M13.25 21.59c2.88 5.66 7.51 10.29 13.18 13.17l4.4-4.41c.55-.55 1.34-.71 2.03-.49 2.24.74 4.65 1.14 7.14 1.14 1.11 0 2 .89 2 2v7c0 1.11-.89 2-2 2-18.78 0-34-15.22-34-34 0-1.11.9-2 2-2h7c1.11 0 2 .89 2 2 0 2.49.4 4.9 1.14 7.14.22.69.06 1.48-.49 2.03l-4.4 4.42z"/></svg>

<svg width="48" height="48" viewBox="0 0 48 48" fill="none" xmlns="http://www.w3.org/2000/svg">
<path d="M13.25 21.59C16.13 27.25 20.76 31.88 26.43 34.76L30.83 30.35C31.38 29.8 32.17 29.64 32.86 29.86C35.1 30.6 37.51 31 40 31C41.11 31 42 31.89 42 33V40C42 41.11 41.11 42 40 42C21.22 42 6 26.78 6 8C6 6.89 6.9 6 8 6H15C16.11 6 17 6.89 17 8C17 10.49 17.4 12.9 18.14 15.14C18.36 15.83 18.2 16.62 17.65 17.17L13.25 21.59V21.59Z" fill="#309BE3"/>
</svg>
